justvector/facebook.svg

<?xml version="1.0" encoding="iso-8859-1"?>
<!-- Generator: Adobe Illustrator 15.0.0, SVG Export Plug-In . SVG Version: 6.00 Build 0)  -->
<!DOCTYPE svg PUBLIC "-//W3C//DTD SVG 1.1//EN" "http://www.w3.org/Graphics/SVG/1.1/DTD/svg11.dtd">
<svg version="1.1" id="Icons" xmlns="http://www.w3.org/2000/svg" xmlns:xlink="http://www.w3.org/1999/xlink" x="0px" y="0px"
	 width="100px" height="100px" viewBox="0 0 100 100" style="enable-background:new 0 0 100 100;" xml:space="preserve">
<path id="Facebook" d="M38.078,22.431c0,2.268,0,12.391,0,12.391H29v15.152h9.078V95h18.649V49.975h12.513
	c0,0,1.172-7.265,1.74-15.209c-1.629,0-14.183,0-14.183,0s0-8.815,0-10.36c0-1.548,2.033-3.631,4.043-3.631c2.006,0,6.239,0,10.16,0
	c0-2.063,0-9.191,0-15.774c-5.235,0-11.189,0-13.814,0C37.617,5,38.078,20.167,38.078,22.431z"/>
</svg>

<?xml version="1.0" encoding="UTF-8" standalone="no"?>
<!DOCTYPE svg PUBLIC "-//W3C//DTD SVG 1.1//EN" "http://www.w3.org/Graphics/SVG/1.1/DTD/svg11.dtd">
<svg width="100%" height="100%" viewBox="0 0 100 100" version="1.1" xmlns="http://www.w3.org/2000/svg" xmlns:xlink="http://www.w3.org/1999/xlink" xml:space="preserve" xmlns:serif="http://www.serif.com/" style="fill-rule:evenodd;clip-rule:evenodd;stroke-linejoin:round;stroke-miterlimit:2;">
    <path id="Facebook" d="M38.078,22.431L38.078,34.822L29,34.822L29,49.974L38.078,49.974L38.078,55L56.727,55L56.727,49.975L69.24,49.975C69.24,49.975 70.412,42.71 70.98,34.766L56.797,34.766L56.797,24.406C56.797,22.858 58.83,20.775 60.84,20.775L71,20.775L71,5.001L57.186,5.001C37.617,5 38.078,20.167 38.078,22.431Z" style="fill:rgb(255,0,0);fill-rule:nonzero;"/>
</svg>
